X: 27572
T: Mongrel, The
R: jig
M: 6/8
K: Dmajor
|:D3 FED|AAB AFE|DEF AFA|BdE E3
D3 FED|AAB AGF|GAG EFG|FAD D3:|
|:fed edc|dcd AdA|DEF AFA|BdE E3
fed edc|dcd AGF|G2 G BAG|FAD D3:|
f2 f dfa|gfg efg|f2 f dfa|bge efg
f2 f dfa|gfg efg|afd cde|fdc d3
f2 f dfa|gfg efg|f2 f dfa|bge efg
a2 f gfe|fed ecA|G2 G BAG|FAD D3||

